!!!OTL: UND SCHAU ICH HIN
!!!ARE: Europa, Mitteleuropa, Deutschland, Schwaben
!!!SCT: E0607
!!!YEM: Copyright 1995, estate of Helmut Schaffrath.
**kern
*ICvox
*Ivox
*M2/4
*k[f#c#g#]
*A:
{8a
=1
8g#
8a
8b
8a
=2
8g#
8a
8b}
{8a
=3
8a
8gn
8ee
8gn
=4
8gn
8f#
8dd}
{8a
=5
8g#
8a
8b
8a
=6
8g#
8a
8b}
{8a
=7
8a
8gn
8.ggn
16cc#
=8
4dd
4r}
=9
{4e
4a
=10
4.cc#}
{16cc#
16dd
=11
8cc#
8b
8b
16b
16cc#
=12
8b
8a
4a}
=13
{4e
4a
=14
4.cc#}
{16cc#
16dd
=15
8cc#
8b
8.ff#
16ee
=16
4a
8r}
==
!!!AGN: Liebes - Lied,
!!!ONB: ESAC (Essen Associative Code) Database: ERK1
!!!AMT: simple duple
!!!AIN: vox
!!!EED: Helmut Schaffrath
!!!EEV: 1.0
*-
